X:110
T: ES LEIT EIN SCHLOSS IN OESTERREICH
N: E0061
O: Europa, Mitteleuropa, Deutschland
R: erzaehlendes Volks - Lied, Sage, Mord
M: 3/4
L: 1/8
K: F
F2 | F4A2 | A4F2 | A4B2 | c4
F2 | c4c2 | c4A2 | B4c2 | A4
A2 | B4B2 | B4c2 | G4G2 | G4
G2 | c4c2 | A2F2A2 | c4BA | G4
G2 | A4G2 | F3EED | F4

@@@ Tune index: 3760
